src/images/exit_light.svg

<svg fill="none" height="16" viewBox="0 0 18 16" width="18" xmlns="http://www.w3.org/2000/svg"><path clip-rule="evenodd" d="m6 2h-4v12h4v2h-4c-1.10457 0-2-.8954-2-2v-12c0-1.10457.895432-2 2-2h4zm7.5856 7.00002-4.29286 4.13388 1.41426 1.3619 6.7071-6.45874-6.7071-6.45869-1.41426 1.36183 4.29286 4.1339h-9.5856v1.92592z" fill="#fff" fill-rule="evenodd"/></svg>

<svg width="18" height="16" viewBox="0 0 18 16" fill="none" xmlns="http://www.w3.org/2000/svg">
<path fill-rule="evenodd" clip-rule="evenodd" d="M6 2L2 2L2 14H6V16H2C0.89543 16 0 15.1046 0 14V2C0 0.89543 0.895432 0 2 0H6V2ZM13.5856 9.00002L9.29274 13.1339L10.707 14.4958L17.4141 8.03706L10.707 1.57837L9.29274 2.9402L13.5856 7.0741H4V9.00002H13.5856Z" fill="#FFFFFF"/>
</svg>
